HTML/img/Rhythms/Rhythm_EighthBeamed.svg

<svg width="612" height="792" viewBox="0 0 40 40" xmlns="http://www.w3.org/2000/svg"><path class="Stem" fill="none" stroke="#000" stroke-width=".65" stroke-linecap="round" stroke-linejoin="bevel" d="M21.54 14.191v14.061M12.528 14.191v14.061"/><path class="Note" d="M25.609 10.498c.625 0 1.152.162 1.582.488.404.351.606.794.606 1.328 0 .898-.463 1.738-1.387 2.52-.938.781-1.94 1.171-3.008 1.171-.625 0-1.152-.162-1.582-.488a1.684 1.684 0 01-.605-1.328c0-.898.468-1.738 1.406-2.52.911-.781 1.907-1.171 2.988-1.171M16.597 10.498c.625 0 1.153.162 1.582.488.404.351.606.794.606 1.328 0 .898-.462 1.738-1.387 2.52-.937.781-1.94 1.171-3.008 1.171-.625 0-1.152-.162-1.582-.488a1.687 1.687 0 01-.605-1.328c0-.898.469-1.738 1.406-2.52.911-.781 1.908-1.171 2.988-1.171"/><path class="Beam" fill-rule="evenodd" d="M12.203 27.002h9.662v2.5h-9.662v-2.5"/></svg>

<?xml version="1.0" encoding="utf-8"?>
<svg width="612px" height="792px" viewBox="0 0 40 40" xmlns="http://www.w3.org/2000/svg">
  <title>Rhythm Reference</title>
  <desc>Generated by MuseScore 2.0.3</desc>
  <polyline class="Stem" fill="none" stroke="#000000" stroke-width="0.65" stroke-linecap="round" stroke-linejoin="bevel" points="21.54 14.191 21.54 28.252"/>
  <polyline class="Stem" fill="none" stroke="#000000" stroke-width="0.65" stroke-linecap="round" stroke-linejoin="bevel" points="12.528 14.191 12.528 28.252"/>
  <path class="Note" d="M 25.609 10.498 C 26.234 10.498 26.761 10.66 27.191 10.986 C 27.595 11.337 27.797 11.78 27.797 12.314 C 27.797 13.212 27.334 14.052 26.41 14.834 C 25.472 15.615 24.47 16.005 23.402 16.005 C 22.777 16.005 22.25 15.843 21.82 15.517 C 21.416 15.166 21.215 14.723 21.215 14.189 C 21.215 13.291 21.683 12.451 22.621 11.669 C 23.532 10.888 24.528 10.498 25.609 10.498"/>
  <path class="Note" d="M 16.597 10.498 C 17.222 10.498 17.75 10.66 18.179 10.986 C 18.583 11.337 18.785 11.78 18.785 12.314 C 18.785 13.212 18.323 14.052 17.398 14.834 C 16.461 15.615 15.458 16.005 14.39 16.005 C 13.765 16.005 13.238 15.843 12.808 15.517 C 12.405 15.166 12.203 14.723 12.203 14.189 C 12.203 13.291 12.672 12.451 13.609 11.669 C 14.52 10.888 15.517 10.498 16.597 10.498"/>
  <path class="Beam" fill-rule="evenodd" d="M 12.203 27.002 L 21.865 27.002 L 21.865 29.502 L 12.203 29.502 L 12.203 27.002"/>
</svg>
